resources/svg/lock-2-line.svg

<svg fill="currentColor" viewBox="0 0 24 24" xmlns="http://www.w3.org/2000/svg"><path d="M6 8V7C6 3.68629 8.68629 1 12 1C15.3137 1 18 3.68629 18 7V8H20C20.5523 8 21 8.44772 21 9V21C21 21.5523 20.5523 22 20 22H4C3.44772 22 3 21.5523 3 21V9C3 8.44772 3.44772 8 4 8H6ZM19 10H5V20H19V10ZM11 15.7324C10.4022 15.3866 10 14.7403 10 14C10 12.8954 10.8954 12 12 12C13.1046 12 14 12.8954 14 14C14 14.7403 13.5978 15.3866 13 15.7324V18H11V15.7324ZM8 8H16V7C16 4.79086 14.2091 3 12 3C9.79086 3 8 4.79086 8 7V8Z"/></svg>

<svg xmlns="http://www.w3.org/2000/svg" viewBox="0 0 24 24" fill="currentColor">
    <g>
        <path fill="none" d="M0 0h24v24H0z"/>
        <path d="M6 8V7a6 6 0 1 1 12 0v1h2a1 1 0 0 1 1 1v12a1 1 0 0 1-1 1H4a1 1 0 0 1-1-1V9a1 1 0 0 1 1-1h2zm13 2H5v10h14V10zm-8 5.732a2 2 0 1 1 2 0V18h-2v-2.268zM8 8h8V7a4 4 0 1 0-8 0v1z"/>
    </g>
</svg>
